X:1
T: The Dublin Reel
C:
R:Reel
Q: 232
K:D
M:4/4
L:1/8
dF ((3FEF) df ec|dF ((3FEF) AF EF|dF ((3FEF) df ed|
cA BG AF EA|dF ((3FEF) df ec|dF ((3FEF) AF EF|dF ((3FEF) df ed|cA Bc AB cd|
e2 ((3cBA) EA cf|((3efe) cA BF ((3FEF) |e2 ((3cBA) EA cA|((3Bcd) cA BF ((3FEF) |
e2 ((3cBA) ec fc|eA cA BF ((3FEF) |d3c df ed|cA BG AF EA|
d3c dA FA|dc dB AF EA|d2 dc df ed|cA Bc AF EA|
d3c dA FA|dc dB AF EA|dc df e2 ae|fd Bc df ec|
dF ((3FEF) df ec|dF ((3FEF) AF EF|dF ((3FEF) df ed|cA BG AF EA|
dF ((3FEF) df ec|dF ((3FEF) AF EF|dF ((3FEF) df ed|cA Bc d2 d2||
